!!!SOCIAL_FUNCTION:	songs connected with ceremonies
!!!PDT:	1929
!!!OTL: No_100_The_Corn_on_Frog_Mountain.krn
!!!REG: Southwest
!!!LANG: Non-Tone
!!!LING_GROUP: Uto-Aztecan
**kern
*staff1
*clefF4
*k[f#c#g#]
*M2/4
8E\L
8E\J
=1
4B\
4B\
=2
4B\
4A\
=3
4B\
4B\
=4
4A\
4B\
=5||
*M3/4
4..A\
16E\
8.A\L
16A\Jk
=6||
*M2/4
2E\
=7
4r
8F#\L
8F#\J
=8
4A\
4B\
=9
(4A\
4F#\)
=10
4A\
4F#\
=11
4F#\
4F#\
=12||
*M3/4
4..E\
16C#/
8.C#/L
16C#/Jk
=13||
*M2/4
2BB/
=14
8.F#\L
16A\Jk
8A\L
16E\L
16E\JJ
=15||
*M3/4
4.E\
16D\
16r
8F#\L
8E\J
=16
4E\
4r
8E\L
8E\J
=17
2E\
4r
==
*-
